X: 1291
T: Mary O'Neill's Fancy
R:Reel
N:Collected by Miss O'Neill
B:O'Neill's 1291
Z:Transcribed by Trish O'Neil
M:C|
L:1/8
K:G
Bd|(3efg dBG2{A}(GF)|D(G {A}(3GF)G DGGB|dBABG2GA|Be{f}ed efge|
dBABG2{A}(GF)|D(G {A}(3GFG D)GGB|dBABG2GA|Be{f}ede2||
ze|d(B {c}(3BAB d)Bge|d(B {c}(3BABd2)g2|d(B {c}(3BAB)g2fg|(3efg dBA2(Bc)|
d(B {c}(3BAB d)Bgf|edefg2ga|(3bag af gefd|edefg2|]


